src/48x48/places/folder-gruvbox-mix-red-linux.svg

<?xml version="1.0" encoding="UTF-8"?>
<svg width="48" height="48" version="1" xmlns="http://www.w3.org/2000/svg">
 <rect x="4" y="17" width="40" height="26" rx="2" ry="2" opacity=".2"/>
 <path d="m4 34c0 1.108 0.892 2 2 2h36c1.108 0 2-0.892 2-2v-22c0-1.108-0.892-2-2-2h-18c-3 0-4-4-7-4h-11c-1.108 0-2 0.892-2 2" fill="#af2528"/>
 <rect x="4" y="15" width="40" height="26" rx="2" ry="2" opacity=".2"/>
 <rect x="6" y="13" width="36" height="16" rx="2" ry="2" fill="#f1d9b5"/>
 <rect x="4" y="16" width="40" height="26" rx="2" ry="2" fill="#f2594b"/>
 <path d="m6 6c-1.108 0-2 0.892-2 2v1c0-1.108 0.892-2 2-2h11c3 0 4 4 7 4h18c1.108 0 2 0.892 2 2v-1c0-1.108-0.892-2-2-2h-18c-3 0-4-4-7-4z" fill="#f1d9b5" opacity=".1"/>
 <path d="m24.56 32.076c-1.12 0.521-1.663 0.515-2.362 0.465-0.835-0.06-1.506-0.289-1.801-0.489-0.182-0.123-0.429-0.075-0.552 0.107s-0.076 0.429 0.106 0.552c0.475 0.321 1.313 0.56 2.19 0.623 0.148 0.011-0.188 0.017-0.013 0.017 0.763 0 1.731-0.072 2.767-0.554 0.199-0.093 0.286-0.329 0.193-0.528-0.093-0.2-0.329-0.286-0.528-0.193zm4.419-0.589c0.038-3.455 0.394-9.982-6.219-9.455-6.529 0.526-4.298 7.423-4.396 9.733-0.086 1.221-0.791 2.715-1.364 4.235h2.064c0.182-0.644 0.315-1.281 0.373-1.888 0.106 0.074 0.22 0.145 0.341 0.214 0.198 0.117 0.368 0.272 0.548 0.435 0.42 0.383 0.896 0.817 1.827 0.872 0.063 3e-3 -0.374 5e-3 -0.312 5e-3 0.942 0 1.586-0.412 2.103-0.743 0.248-0.159 0.463-0.296 0.664-0.362 0.573-0.179 1.074-0.469 1.448-0.837 0.058-0.058 0.113-0.117 0.163-0.177 0.209 0.764 0.494 1.623 0.811 2.481h3.968c-0.905-1.397-2.038-2.766-2.019-4.513zm-9.983-1.88c-0.065-1.127 0.475-2.076 1.205-2.118 0.73-0.043 1.374 0.837 1.439 1.964l1e-3 1e-3c3e-3 0.06 4e-3 0.121 4e-3 0.18-0.231 0.058-0.44 0.143-0.627 0.241 0-8e-3 -1e-3 -0.016-2e-3 -0.025-0.062-0.64-0.404-1.123-0.763-1.079-0.359 0.043-0.6 0.597-0.537 1.238 0.027 0.279 0.107 0.528 0.219 0.717-0.028 0.022-0.107 0.079-0.197 0.145-0.068 0.05-0.151 0.111-0.25 0.184-0.272-0.357-0.459-0.869-0.492-1.448zm6.898 2.787c-0.026 0.595-0.805 1.156-1.525 1.381l-4e-3 1e-3c-0.299 0.097-0.566 0.268-0.849 0.449-0.475 0.304-0.966 0.618-1.675 0.618-0.046 0 0.405-1e-3 0.359-4e-3 -0.65-0.038-0.954-0.315-1.338-0.666-0.203-0.184-0.413-0.375-0.684-0.534l-5e-3 -4e-3c-0.584-0.329-0.947-0.739-0.97-1.096-0.011-0.177 0.068-0.331 0.235-0.456 0.364-0.273 0.608-0.452 0.769-0.57 0.18-0.131 0.234-0.171 0.274-0.209 0.028-0.027 0.06-0.057 0.093-0.089 0.334-0.325 0.394-0.869 1.252-0.869 0.525 0 1.106 0.202 1.725 0.6 0.292 0.19 0.545 0.277 0.866 0.388 0.221 0.077 0.472 0.163 0.807 0.306l5e-3 3e-3c0.313 0.128 0.682 0.363 0.665 0.751zm-0.172-1.4c-0.06-0.03-0.123-0.059-0.188-0.086-0.302-0.129-0.545-0.217-0.746-0.287 0.111-0.217 0.18-0.488 0.187-0.782v-1e-3c0.015-0.716-0.346-1.297-0.807-1.298s-0.847 0.578-0.862 1.294v1e-3 0.07c-0.284-0.131-0.563-0.226-0.837-0.284l-3e-3 -0.081v-1e-3c-0.026-1.304 0.774-2.384 1.788-2.411 1.013-0.028 1.856 1.007 1.883 2.312 0.012 0.59-0.146 1.133-0.415 1.554z" fill="#4c3432"/>
</svg>

<svg xmlns="http://www.w3.org/2000/svg" width="48" height="48" version="1">
 <rect style="opacity:0.2" width="40" height="26" x="4" y="17" rx="2" ry="2"/>
 <path style="fill:#af2528" d="M 4,34 C 4,35.108 4.892,36 6,36 H 42 C 43.108,36 44,35.108 44,34 V 12 C 44,10.892 43.108,10 42,10 H 24 C 21,10 20,6 17,6 H 6 C 4.892,6 4,6.892 4,8"/>
 <rect style="opacity:0.2" width="40" height="26" x="4" y="15" rx="2" ry="2"/>
 <rect style="fill:#f1d9b5" width="36" height="16" x="6" y="13" rx="2" ry="2"/>
 <rect style="fill:#f2594b" width="40" height="26" x="4" y="16" rx="2" ry="2"/>
 <path style="opacity:0.1;fill:#f1d9b5" d="M 6,6 C 4.892,6 4,6.892 4,8 V 9 C 4,7.892 4.892,7 6,7 H 17 C 20,7 21,11 24,11 H 42 C 43.108,11 44,11.892 44,13 V 12 C 44,10.892 43.108,10 42,10 H 24 C 21,10 20,6 17,6 Z"/>
 <path style="fill:#4c3432" d="M 24.56,32.076 C 23.44,32.597 22.897,32.591 22.198,32.541 21.363,32.481 20.692,32.252 20.397,32.052 20.215,31.929 19.968,31.977 19.845,32.159 19.722,32.341 19.769,32.588 19.951,32.711 20.426,33.032 21.264,33.271 22.141,33.334 22.289,33.345 21.953,33.351 22.128,33.351 22.891,33.351 23.859,33.279 24.895,32.797 25.094,32.704 25.181,32.468 25.088,32.269 24.995,32.069 24.759,31.983 24.56,32.076 Z M 28.979,31.487 C 29.017,28.032 29.373,21.505 22.76,22.032 16.231,22.558 18.462,29.455 18.364,31.765 18.278,32.986 17.573,34.48 17,36 H 19.064 C 19.246,35.356 19.379,34.719 19.437,34.112 19.543,34.186 19.657,34.257 19.778,34.326 19.976,34.443 20.146,34.598 20.326,34.761 20.746,35.144 21.222,35.578 22.153,35.633 22.216,35.636 21.779,35.638 21.841,35.638 22.783,35.638 23.427,35.226 23.944,34.895 24.192,34.736 24.407,34.599 24.608,34.533 25.181,34.354 25.682,34.064 26.056,33.696 26.114,33.638 26.169,33.579 26.219,33.519 26.428,34.283 26.713,35.142 27.03,36 H 30.998 C 30.093,34.603 28.96,33.234 28.979,31.487 Z M 18.996,29.607 C 18.996,29.607 18.996,29.607 18.996,29.607 18.931,28.48 19.471,27.531 20.201,27.489 20.931,27.446 21.575,28.326 21.64,29.453 21.64,29.453 21.641,29.454 21.641,29.454 21.644,29.514 21.645,29.575 21.645,29.634 21.414,29.692 21.205,29.777 21.018,29.875 21.018,29.867 21.017,29.859 21.016,29.85 V 29.85 C 20.954,29.21 20.612,28.727 20.253,28.771 19.894,28.814 19.653,29.368 19.716,30.009 19.716,30.009 19.716,30.009 19.716,30.009 19.743,30.288 19.823,30.537 19.935,30.726 19.907,30.748 19.828,30.805 19.738,30.871 19.67,30.921 19.587,30.982 19.488,31.055 19.216,30.698 19.029,30.186 18.996,29.607 Z M 25.894,32.394 C 25.868,32.989 25.089,33.55 24.369,33.775 L 24.365,33.776 C 24.066,33.873 23.799,34.044 23.516,34.225 23.041,34.529 22.55,34.843 21.841,34.843 21.795,34.843 22.246,34.842 22.2,34.839 21.55,34.801 21.246,34.524 20.862,34.173 20.659,33.989 20.449,33.798 20.178,33.639 L 20.173,33.635 C 19.589,33.306 19.226,32.896 19.203,32.539 19.192,32.362 19.271,32.208 19.438,32.083 19.802,31.81 20.046,31.631 20.207,31.513 20.387,31.382 20.441,31.342 20.481,31.304 20.509,31.277 20.541,31.247 20.574,31.215 20.908,30.89 20.968,30.346 21.826,30.346 22.351,30.346 22.932,30.548 23.551,30.946 23.843,31.136 24.096,31.223 24.417,31.334 24.638,31.411 24.889,31.497 25.224,31.64 L 25.229,31.643 C 25.542,31.771 25.911,32.006 25.894,32.394 Z M 25.722,30.994 C 25.662,30.964 25.599,30.935 25.534,30.908 25.232,30.779 24.989,30.691 24.788,30.621 24.899,30.404 24.968,30.133 24.975,29.839 V 29.838 C 24.99,29.122 24.629,28.541 24.168,28.54 23.707,28.539 23.321,29.118 23.306,29.834 V 29.835 C 23.306,29.858 23.306,29.881 23.306,29.905 23.022,29.774 22.743,29.679 22.469,29.621 22.468,29.594 22.467,29.567 22.466,29.54 V 29.539 C 22.44,28.235 23.24,27.155 24.254,27.128 25.267,27.1 26.11,28.135 26.137,29.44 V 29.44 C 26.149,30.03 25.991,30.573 25.722,30.994 Z"/>
</svg>
